X:1
T:Seneca Square Dance
L:1/8
M:C|
I:linebreak $
K:G
V:1 treble
V:1
 A2 |"G" B4 BABc | d2 B2- B2 A2 |"Em" B4 BA B2 | AG- GE G2 A2 |$
"G" B4 BABc | d2 B2- B2 AB |"D" cBAG FDEF |"G" G6 :|$
|:d|"G"  g2 ga gf | dB- Bd B2 ef | gfef g2 a2 |"Em" be- ef e2 ef |$
"C" g2 ga gf e2 |"G" dB- Bd B2 AB |"D7" cBAG FDEF |"G" G6 :|
